packages/core/src/svgs/tokens/branded/MXC.svg

<svg width="24" height="24" viewBox="0 0 24 24" fill="none" xmlns="http://www.w3.org/2000/svg">
<path d="M18 6.83334C18.0164 6.61203 18.1139 6.40454 18.2738 6.25072C18.4337 6.09692 18.645 6.00763 18.8666 6.00001H21.4467C21.5929 5.99827 21.7326 5.93942 21.836 5.83603C21.9395 5.73263 21.9983 5.59289 22 5.44667V2.55333C21.9983 2.40712 21.9395 2.26739 21.836 2.16399C21.7326 2.06059 21.5929 2.00173 21.4467 2H18.5533C18.4067 2 18.2659 2.0583 18.1621 2.16207C18.0584 2.26583 18 2.40658 18 2.55333V5.13333C17.9901 5.34567 17.907 5.54803 17.7648 5.70601C17.6227 5.86401 17.4302 5.96789 17.2201 6.00001H14.5534C14.4065 6.00001 14.2659 6.0583 14.1622 6.16207C14.0584 6.26584 14.0001 6.40659 14.0001 6.55334V9.13334C13.9901 9.34568 13.907 9.54806 13.7649 9.7061C13.6227 9.86399 13.4301 9.9679 13.22 9.99995H10.7801C10.5828 9.97288 10.3997 9.88188 10.2589 9.7411C10.1182 9.60032 10.0272 9.41723 9.99995 9.21999V6.55334C9.99917 6.48068 9.98392 6.40889 9.9553 6.3421C9.92668 6.27528 9.8853 6.21477 9.83319 6.16401C9.78124 6.11326 9.71979 6.07323 9.65228 6.04623C9.58477 6.01924 9.51275 6.0058 9.43995 6.00667H6.77334C6.57728 5.97814 6.39583 5.88661 6.25632 5.74591C6.11682 5.60521 6.02686 5.42298 6.00001 5.22667V2.56C6.00001 2.41325 5.94171 2.2725 5.83794 2.16873C5.73417 2.06496 5.59342 2.00666 5.44667 2.00666H2.55333C2.40658 2.00666 2.26583 2.06496 2.16207 2.16873C2.0583 2.2725 2 2.41325 2 2.56V5.45334C2 5.60009 2.0583 5.74084 2.16207 5.84461C2.26583 5.94838 2.40658 6.00667 2.55333 6.00667H5.12667C5.36667 6.02 5.59334 6.13334 5.76668 6.31335C5.84777 6.4097 5.90895 6.52119 5.94672 6.64132C5.98447 6.76147 5.99805 6.88791 5.98668 7.01335H6.00001V9.14003C5.98668 9.35999 5.90001 9.56672 5.75335 9.72663C5.60667 9.88001 5.42001 9.97335 5.22001 10.0066H2.55333C2.40658 10.0066 2.26583 10.065 2.16207 10.1687C2.0583 10.2725 2 10.4133 2 10.5599V21.4467C2 21.5935 2.0583 21.7342 2.16207 21.8379C2.26583 21.9418 2.40658 22 2.55333 22H5.44667C5.59342 22 5.73417 21.9418 5.83794 21.8379C5.94171 21.7342 6.00001 21.5935 6.00001 21.4467V10.8334C6.01334 10.6334 6.09335 10.4534 6.22002 10.3C6.38668 10.1267 6.62001 10.0133 6.86 9.99995H9.12666C9.25126 10.0048 9.37352 10.0351 9.48583 10.0892C9.59815 10.1434 9.69801 10.2201 9.77937 10.3145C9.86072 10.4089 9.9217 10.5192 9.95857 10.6383C9.99528 10.7573 10.0073 10.8827 9.99341 11.0067V11V13.4468C9.99341 13.5199 10.0079 13.5924 10.036 13.66C10.0643 13.7275 10.1057 13.7888 10.1578 13.8403C10.2098 13.8918 10.2717 13.9324 10.3395 13.9598C10.4075 13.9873 10.4801 14.0008 10.5534 14.0001H13.4401C13.5868 14.0001 13.7275 13.9417 13.8313 13.838C13.935 13.7342 13.9934 13.5934 13.9934 13.4468V10.8334C14.0133 10.6334 14.0867 10.4534 14.22 10.3C14.3866 10.1267 14.6134 10.0133 14.86 9.99995H17.1267C17.3668 10.0133 17.5934 10.1267 17.76 10.3067C17.8423 10.4025 17.9047 10.5137 17.9436 10.634C17.9826 10.7541 17.9972 10.8809 17.9867 11.0067L18 11V21.4467C18 21.5923 18.0574 21.7321 18.1598 21.8356C18.2621 21.9392 18.4011 21.9983 18.5467 22H21.44C21.5868 22 21.7276 21.9418 21.8314 21.8379C21.9351 21.7342 21.9933 21.5935 21.9933 21.4467V10.5534C21.9933 10.4066 21.9351 10.2658 21.8314 10.162C21.7276 10.0583 21.5868 9.99995 21.44 9.99995H18.7733C18.5773 9.97148 18.3959 9.88001 18.2564 9.73924C18.1169 9.59861 18.0269 9.4163 18 9.21999V6.83334Z" fill="url(#paint0_linear_364_1830)"/>
<defs>
<linearGradient id="paint0_linear_364_1830" x1="5.00001" y1="4.9" x2="19.1893" y2="19.1536" gradientUnits="userSpaceOnUse">
<stop stop-color="#3538E0"/>
<stop offset="1" stop-color="#DB1E83"/>
</linearGradient>
</defs>
</svg>

<svg xmlns="http://www.w3.org/2000/svg" width="24" height="24" fill="none" viewBox="0 0 24 24">
    <path fill="url(#MXC__a)" d="M18 6.833A.9.9 0 0 1 18.867 6h2.58A.56.56 0 0 0 22 5.447V2.553A.56.56 0 0 0 21.447 2h-2.894a.554.554 0 0 0-.553.553v2.58a.92.92 0 0 1-.78.867h-2.667a.553.553 0 0 0-.553.553v2.58a.92.92 0 0 1-.78.867h-2.44a.91.91 0 0 1-.78-.78V6.553a.55.55 0 0 0-.56-.546H6.773A.91.91 0 0 1 6 5.227V2.56a.553.553 0 0 0-.553-.553H2.553A.553.553 0 0 0 2 2.56v2.893a.553.553 0 0 0 .553.554h2.574a.97.97 0 0 1 .64.306.95.95 0 0 1 .22.7H6V9.14a.95.95 0 0 1-.247.587.95.95 0 0 1-.533.28H2.553A.554.554 0 0 0 2 10.56v10.887a.553.553 0 0 0 .553.553h2.894A.553.553 0 0 0 6 21.447V10.833c.013-.2.093-.38.22-.533a.98.98 0 0 1 .64-.3h2.267a.91.91 0 0 1 .866 1.007V11v2.447a.556.556 0 0 0 .56.553h2.887a.554.554 0 0 0 .553-.553v-2.614q.029-.302.227-.533a.97.97 0 0 1 .64-.3h2.267a.94.94 0 0 1 .633.307.95.95 0 0 1 .227.7L18 11v10.447a.553.553 0 0 0 .547.553h2.893a.553.553 0 0 0 .553-.553V10.553A.554.554 0 0 0 21.44 10h-2.667A.91.91 0 0 1 18 9.22z"/>
    <defs>
        <linearGradient id="MXC__a" x1="5" x2="19.189" y1="4.9" y2="19.154" gradientUnits="userSpaceOnUse">
            <stop stop-color="#3538E0"/>
            <stop offset="1" stop-color="#DB1E83"/>
        </linearGradient>
    </defs>
</svg>
